apps/portfolio/src/portfolio/static/assets/icons/documentary_support.svg

<svg
  width="800"
  height="800"
  viewBox="0 0 256 240"
  fill="#ffffff"
  xmlns="http://www.w3.org/2000/svg"
>
  <path
    d="m84.635 20.256 c18.383 0 33.286 14.903 33.286 33.286
      s-14.903 33.286-33.286 33.286-33.286-14.903-33.286-33.286 14.902-33.286 33.286-33.286 z m-53.633 124.76
      c0-2.499 1.606-4.194 4.194-4.194 s4.194 1.606 4.194 4.194 v92.986 h91.469 v-92.986
      c0-2.499 1.606-4.194 4.194-4.194 2.499 0 4.194 1.606 4.194 4.194 v92.986 h29.092 v-101.37
      c0-22.934-18.74-41.585-41.585-41.585 h-8.388 l-24.451 38.015-2.945-28.467 4.016-9.638 h-18.026
      l4.016 9.638-3.123 28.645-24.452-38.193 h-9.816 c-22.934 0-41.585 18.74-41.585 41.585 v101.38 h29.092 v-92.986 h-0.09 z
      m183-127.01 h23 v23 h-23 v-23 z m-31 16 h21 v7 h-21 v-7 z m0-16 h21 v7 h-21 v-7 z m0 49 h54 v7 h-54 v-7 z m0-16 h54 v7
      h-54 v-7 z m0 32 h54 v7 h-54 v-7 z m-17-81.245 v104.24 h88 v-104 l-88-0.245 z m80.838 97.245 h-73.838 v-90 h74
      l-0.162 90 z"
  />
</svg>

<?xml version="1.0" encoding="utf-8"?>

<svg fill="#000000" version="1.1" id="Layer_1" xmlns="http://www.w3.org/2000/svg" xmlns:xlink="http://www.w3.org/1999/xlink" 
	 width="800px" height="800px" viewBox="0 0 256 240" enable-background="new 0 0 256 240" xml:space="preserve">
<path d="M84.635,20.256c18.383,0,33.286,14.903,33.286,33.286s-14.903,33.286-33.286,33.286S51.349,71.925,51.349,53.542
	S66.251,20.256,84.635,20.256z M31.002,145.011c0-2.499,1.606-4.194,4.194-4.194s4.194,1.606,4.194,4.194v92.986h91.469v-92.986
	c0-2.499,1.606-4.194,4.194-4.194c2.499,0,4.194,1.606,4.194,4.194v92.986h29.092V136.623c0-22.934-18.74-41.585-41.585-41.585
	h-8.388l-24.451,38.015l-2.945-28.467l4.016-9.638H76.96l4.016,9.638l-3.123,28.645L53.401,95.038h-9.816
	C20.651,95.038,2,113.778,2,136.623v101.375h29.092v-92.986H31.002z M214,18h23v23h-23V18z M183,34h21v7h-21V34z M183,18h21v7h-21
	V18z M183,67h54v7h-54V67z M183,51h54v7h-54V51z M183,83h54v7h-54V83z M166,1.755V106h88V2L166,1.755z M246.838,99H173V9h3.526
	h6.849H247L246.838,99z"/>
</svg>
